material/.icons/material/language-fortran.svg

<svg xmlns="http://www.w3.org/2000/svg" viewBox="0 0 24 24"><path d="M5 4v2h1c.55 0 1 .45 1 1v10c0 .55-.45 1-1 1H5v2h9v-2h-2c-.55 0-1-.45-1-1v-4h2c.55 0 1 .45 1 1v2h2V8h-2v2c0 .55-.45 1-1 1h-2V6h5c1.11 0 2 1.34 2 3v1h2V4z"/></svg>

<?xml version="1.0" encoding="UTF-8"?><!DOCTYPE svg PUBLIC "-//W3C//DTD SVG 1.1//EN" "http://www.w3.org/Graphics/SVG/1.1/DTD/svg11.dtd"><svg xmlns="http://www.w3.org/2000/svg" xmlns:xlink="http://www.w3.org/1999/xlink" version="1.1" id="mdi-language-fortran" width="24" height="24" viewBox="0 0 24 24"><path d="M5 4V6H6C6.55 6 7 6.45 7 7V17C7 17.55 6.55 18 6 18H5V20H14V18H12C11.45 18 11 17.55 11 17V13H13C13.55 13 14 13.45 14 14V16H16V8H14V10C14 10.55 13.55 11 13 11H11V6H16C17.11 6 18 7.34 18 9V10H20V4Z" /></svg>
